projects/seb-pictograms/svg/regular/102-Picto-Regular_black.svg

<svg xmlns="http://www.w3.org/2000/svg" viewBox="0 0 170 170"><path d="M36.7 152.4H5v-6h28.7v-29.2a3 3 0 013-3h29.2V85a3 3 0 013-3h29.2V52.8a3 3 0 013-3h29.2V20.6a3 3 0 013-3h32.2v6h-29.2v29.2a3 3 0 01-3 3h-29.2V85a3 3 0 01-3 3H71.9v29.2a3 3 0 01-3 3H39.7v29.2a3 3 0 01-3 3z"/></svg>

<svg id="PIKTO_REGULAR" xmlns="http://www.w3.org/2000/svg" viewBox="0 0 170 170"><title>regular_black</title><path d="M36.7,152.4H5v-6H33.7V117.2a3,3,0,0,1,3-3H65.9V85a3,3,0,0,1,3-3H98.1V52.8a3,3,0,0,1,3-3h29.2V20.6a3,3,0,0,1,3-3h32.2v6H136.3V52.8a3,3,0,0,1-3,3H104.1V85a3,3,0,0,1-3,3H71.9v29.2a3,3,0,0,1-3,3H39.7v29.2A3,3,0,0,1,36.7,152.4Z"/></svg>
